X:507
T:Vals # 507
T: efter Melker Andersson
M:3/4
L:1/8
K: G
Q: 160
d2| Bd Bd Bd| g4 d2| Bd Bd gf| e4d2| AB AG AA| a4g2| ag fe dc|
B3d Bc|d2 BG Bd| g4 Bc| dc Bc gf| e4d2| AB AG AA| a3aa2|
ag fd ef| g4 :: d2| Bd g2 B2| d4G2| Bd g2B2| cd cB c2| AB c2A2| F4A2|
Ac e2d2| B4G2| Bd g2B2| d4 G2| Bd g2B2| cd cB c2| AB c2A2| F4A2| Ac ed cA|
G4 :: Bd| gf fe ce| ed dB GB| BA AG FA| AG GB dg| gf fe ce|
ed dB GB| BA AG FA| G4 :|

